packages/axiom-materials/src/icon_svgs/format-quote.svg

<svg height="16" viewBox="0 0 16 16" width="16" xmlns="http://www.w3.org/2000/svg"><path d="m5 0v4.87629842h-2.5l2.5 5.12370158h-2.50362285l-2.49637715-5.12370158v-4.87629842zm7 0v4.87629842h-2.5l2.5 5.12370158h-2.5036229l-2.4963771-5.12370158v-4.87629842z" fill-rule="evenodd" transform="translate(2 3)"/></svg>

<?xml version="1.0" encoding="UTF-8"?>
<svg width="16px" height="16px" viewBox="0 0 16 16" version="1.1" xmlns="http://www.w3.org/2000/svg" xmlns:xlink="http://www.w3.org/1999/xlink">
    <title>Icon/Format Quote</title>
    <desc>Created with Sketch.</desc>
    <g id="Icon/Format-Quote" stroke="none" stroke-width="1" fill="none" fill-rule="evenodd">
        <g id="Format-Quote" transform="translate(2.000000, 3.000000)" fill="#000000">
            <path d="M5,0 L5,4.87629842 L2.5,4.87629842 L5,10 L2.49637715,10 L0,4.87629842 L0,0 L5,0 Z M12,0 L12,4.87629842 L9.5,4.87629842 L12,10 L9.4963771,10 L7,4.87629842 L7,0 L12,0 Z" id="Combined-Shape"></path>
        </g>
    </g>
</svg>
